X: 34
T: Song xin niang
%%abc-version 2.0
%%abcx-abcm2ps-target-version 5.9.1 (29 Sep 2008)
%%abc-creator hum2abc beta
%%abcx-conversion-date 2013/10/02 07:44:27
%%abc-edited-by Helmut Schaffrath
%%humdrum-veritas 491414786
%%humdrum-veritas-data 2760632012
%%continueall 1
%%barnumbers 0
L: 1/16
M: 2/4
K: F
d2 d2 d e d c [I:setbarnb 1]| 
d2 d2f4 | 
g2 f2 d e d c | 
d2 d2d4 | 
f2 f2 d f d c | 
A2 G2G4 | 
F2 F G A G F E | 
D4D4 |]  



